packages/svg/memo.svg

<svg width="1024" height="1024" fill="none" xmlns="http://www.w3.org/2000/svg"><path d="M352 128v768h-64V128h-96v768h640V128H352ZM160 64h704c9.344 0 17.013 2.997 23.008 8.992C893.003 78.987 896 86.656 896 96v832c0 9.344-2.997 17.013-8.992 23.008C881.013 957.003 873.344 960 864 960H160c-9.344 0-17.013-2.997-23.008-8.992C130.997 945.013 128 937.344 128 928V96c0-9.344 2.997-17.013 8.992-23.008C142.987 66.997 150.656 64 160 64Zm320 192h192c21.333 0 32 10.667 32 32s-10.667 32-32 32H480c-21.333 0-32-10.667-32-32s10.667-32 32-32Zm0 192h192c21.333 0 32 10.667 32 32s-10.667 32-32 32H480c-21.333 0-32-10.667-32-32s10.667-32 32-32Zm0 192h192c21.333 0 32 10.667 32 32s-10.667 32-32 32H480c-21.333 0-32-10.667-32-32s10.667-32 32-32Z" fill="#303133"/></svg>

<svg width="1024" height="1024" viewBox="0 0 1024 1024" fill="none" xmlns="http://www.w3.org/2000/svg">
<path d="M352 128V896H288V128H192V896H832V128H352ZM160 64H864C873.344 64 881.013 66.9973 887.008 72.992C893.003 78.9867 896 86.656 896 96V928C896 937.344 893.003 945.013 887.008 951.008C881.013 957.003 873.344 960 864 960H160C150.656 960 142.987 957.003 136.992 951.008C130.997 945.013 128 937.344 128 928V96C128 86.656 130.997 78.9867 136.992 72.992C142.987 66.9973 150.656 64 160 64ZM480 256H672C693.333 256 704 266.667 704 288C704 309.333 693.333 320 672 320H480C458.667 320 448 309.333 448 288C448 266.667 458.667 256 480 256ZM480 448H672C693.333 448 704 458.667 704 480C704 501.333 693.333 512 672 512H480C458.667 512 448 501.333 448 480C448 458.667 458.667 448 480 448ZM480 640H672C693.333 640 704 650.667 704 672C704 693.333 693.333 704 672 704H480C458.667 704 448 693.333 448 672C448 650.667 458.667 640 480 640Z" fill="#303133"/>
</svg>
